X:307
T: Anna im Grabe (54b), S. 173
N: T0196
O: Luxemburg
S: Singendes Volk, Esch-Alzette 1937 posth.]
N: Rodershausen, fff Lena Peters, 1930,
N: mitgeteilt: hhh Josef Bour (Lehrer)
R: Liebeslieder]
M: 4/4
L: 1/8
K: G
D2 | G2B2D2G2 | E2GED2
G2 | F2G2A2B2 | A4z2
DD | c3BAAdc | B3AG2
DD | E2ccB2A2 | G4z2

